packages/calcite-ui-icons/icons/circle-intersection-24.svg

<?xml version="1.0" encoding="UTF-8"?><svg id="icons" xmlns="http://www.w3.org/2000/svg" viewBox="0 0 24 24"><defs><style>.cls-1{fill:none;}</style></defs><rect class="cls-1" width="24" height="24"/><path d="M24,9.5c0,4.51776-3.54651,8.21362-8,8.47467v-1c3.9024-.25916,7-3.50769,7-7.47467,0-4.13574-3.36426-7.5-7.5-7.5s-7.5,3.36426-7.5,7.5c0,.4903.05066.96857.14087,1.43286,2.45392.24139,4.48926,1.86285,5.37183,4.06714h-1.08008c-.76184-1.56042-2.23407-2.71088-4.00043-3.0144.49536,1.40417,1.40204,2.60809,2.56781,3.48792v1.22699c-1.73535-1.0899-3.05298-2.78589-3.64728-4.79266-2.96375.07904-5.35272,2.51007-5.35272,5.49255,0,3.03223,2.46777,5.5,5.5,5.5,2.08716,0,3.88464-1.18219,4.81427-2.90039h1.12872c-1.00403,2.29181-3.28461,3.90039-5.94299,3.90039-3.58398,0-6.5-2.91602-6.5-6.5,0-3.45856,2.71765-6.28687,6.12842-6.48114-.07825-.46259-.12842-.93475-.12842-1.41925C7,4.81348,10.81348,1,15.5,1s8.5,3.81348,8.5,8.5ZM15,16v3h-3v-3h3ZM14,17h-1v1h1v-1Z"/></svg>

<svg xmlns="http://www.w3.org/2000/svg" viewBox="0 0 24 24"><path d="M0 0h24v24H0z" style="fill:none"/><path d="M24 9.5c0 4.518-3.547 8.214-8 8.475v-1c3.902-.26 7-3.508 7-7.475C23 5.364 19.636 2 15.5 2S8 5.364 8 9.5c0 .49.05.969.14 1.433 2.455.241 4.49 1.863 5.373 4.067h-1.08a5.5 5.5 0 0 0-4-3.014A7.5 7.5 0 0 0 11 15.474V16.7a8.54 8.54 0 0 1-3.647-4.793C4.389 11.987 2 14.418 2 17.4c0 3.033 2.468 5.5 5.5 5.5 2.087 0 3.885-1.182 4.814-2.9h1.129c-1.004 2.292-3.285 3.9-5.943 3.9A6.51 6.51 0 0 1 1 17.4c0-3.458 2.718-6.286 6.128-6.48A8.5 8.5 0 0 1 7 9.5C7 4.813 10.813 1 15.5 1S24 4.813 24 9.5M15 16v3h-3v-3zm-1 1h-1v1h1z"/></svg>
